X:1
T:Xmass_Lemm
T:Xmass_Lemm
T:arr. by ear: Žiga Mirai
%%score { 1 | 2 }
L:1/8
Q:1/4=200
M:4/4
K:C
V:1 treble nm="Piano" snm="Pno."
V:2 bass 
V:1
 B2 B2 B4 | B2 B2 B4 | B2 d2 G3 A | B8 | c2 c2 c3 c |1 c2 B2 B3 B | B2 A2 A2 B2 | A8 :|2 %8
 c2 B2 B2 B>c | d2 d2 c2 A2 | G8 |: D2 B2 A2 G2 | D6 B,>C | D2 B2 A2 G2 | E6 E2 | E2 c2 B3 A |1 %16
 ^F6 F2 | e2 e2 A2 ^A2 | B8 :|2 d2 d2 d2 d>^d | e2 d2 c2 A2 | G8- | G4 z4 |] %23
V:2
 B,2 G,2 D,2 B,,2 | B,2 G,2 D,2 B,,2 | B,2 G,2 D,2 B,,2 | B,2 G,2 D,2 B,,2 | C2 G,2 E,2 C,2 |1 %5
 C2 B,2 G,2 D,2 | B,2 A,2 ^G,2 B,2 | A,2 ^F,2 D,2 A,,2 :|2 C2 B,2 G,2 D,2 | C2 B,2 G,2 D,2 | %10
 B,2 G,2 D,2 B,,2 |: B,2 G,2 D,2 B,,2 | B,2 G,2 D,2 B,,2 | B,2 G,2 D,2 B,,2 | C2 G,2 E,2 C,2 | %15
 C2 G,2 E,2 C,2 |1 A,2 ^F,2 D,2 A,,2 | C2 B,2 G,2 D,2 | B,2 G,2 D,2 B,,2 :|2 C2 B,2 G,2 D,2 | %20
 A,2 ^F,2 D,2 A,,2 | B,2 G,2 D,2 B,,2 | G,,4 z4 |] %23

